X:519
T: MEIN HERZ IST SO TRAURIG
N: E1793
O: Europa, Mitteleuropa, Deutschland, Bergstrasse, Alsbach
R: Gefangenen - Lied, Klage
M: 3/4
L: 1/8
K: F
C2 | F2F2FA | AFG2
CE | G2B2B2 | BcA2z2 |
F2A2c2 | c3ABA |
GFE2G2 | GAF2

@@@ Tune index: 5203
